Catalina-dark/actions/16/snap-bounding-box-center.svg

<svg width="16" height="16" version="1.1" viewBox="0 0 16 16" xmlns="http://www.w3.org/2000/svg">
<defs>
<style id="current-color-scheme" type="text/css">.ColorScheme-Text { color:#5c616c; } .ColorScheme-Highlight { color:#5294e2; }</style>
</defs>
<path class="ColorScheme-Text" d="m14 1.5v0.5 1 0.5h1v-0.5-1-0.5h-1zm-11 2.5v3h3v-3h-3zm11 0.5v0.5 1 0.5h1v-0.5-1-0.5h-1zm0 3v0.5 1 0.5h1v-0.5-1-0.5h-1zm0 3v0.5 1 0.5h1v-0.5-1-0.5h-1zm0 3v0.5h-0.5v1h0.5 0.5 0.5v-0.5-0.5-0.5h-1zm-12.5 0.5v1h0.5 1 0.5v-1h-0.5-1-0.5zm3 0v1h0.5 1 0.5v-1h-0.5-1-0.5zm3 0v1h0.5 1 0.5v-1h-0.5-1-0.5zm3 0v1h0.5 1 0.5v-1h-0.5-1-0.5z" fill="#dedede" fill-opacity=".85098"/>
</svg>

<?xml version="1.0" encoding="UTF-8" standalone="no"?>
<svg
   xmlns:dc="http://purl.org/dc/elements/1.1/"
   xmlns:cc="http://creativecommons.org/ns#"
   xmlns:rdf="http://www.w3.org/1999/02/22-rdf-syntax-ns#"
   xmlns:svg="http://www.w3.org/2000/svg"
   xmlns="http://www.w3.org/2000/svg"
   xmlns:sodipodi="http://sodipodi.sourceforge.net/DTD/sodipodi-0.dtd"
   xmlns:inkscape="http://www.inkscape.org/namespaces/inkscape"
   width="16"
   height="16"
   viewBox="0 0 16 16"
   version="1.1"
   id="svg7"
   sodipodi:docname="snap-bounding-box-center.svg"
   inkscape:version="0.92.4 5da689c313, 2019-01-14">
  <metadata
     id="metadata11">
    <rdf:RDF>
      <cc:Work
         rdf:about="">
        <dc:format>image/svg+xml</dc:format>
        <dc:type
           rdf:resource="http://purl.org/dc/dcmitype/StillImage" />
      </cc:Work>
    </rdf:RDF>
  </metadata>
  <sodipodi:namedview
     pagecolor="#ffffff"
     bordercolor="#666666"
     borderopacity="1"
     objecttolerance="10"
     gridtolerance="10"
     guidetolerance="10"
     inkscape:pageopacity="0"
     inkscape:pageshadow="2"
     inkscape:window-width="640"
     inkscape:window-height="480"
     id="namedview9"
     showgrid="false"
     inkscape:zoom="14.75"
     inkscape:cx="6.8135593"
     inkscape:cy="8"
     inkscape:window-x="0"
     inkscape:window-y="26"
     inkscape:window-maximized="0"
     inkscape:current-layer="svg7" />
  <defs
     id="defs3">
    <style
       id="current-color-scheme"
       type="text/css">
   .ColorScheme-Text { color:#5c616c; } .ColorScheme-Highlight { color:#5294e2; }
  </style>
  </defs>
  <path
     style="fill:#f1f6f8;fill-opacity:0.8509804"
     class="ColorScheme-Text"
     d="M 14 1.5 L 14 2 L 14 3 L 14 3.5 L 15 3.5 L 15 3 L 15 2 L 15 1.5 L 14 1.5 z M 3 4 L 3 7 L 6 7 L 6 4 L 3 4 z M 14 4.5 L 14 5 L 14 6 L 14 6.5 L 15 6.5 L 15 6 L 15 5 L 15 4.5 L 14 4.5 z M 14 7.5 L 14 8 L 14 9 L 14 9.5 L 15 9.5 L 15 9 L 15 8 L 15 7.5 L 14 7.5 z M 14 10.5 L 14 11 L 14 12 L 14 12.5 L 15 12.5 L 15 12 L 15 11 L 15 10.5 L 14 10.5 z M 14 13.5 L 14 14 L 13.5 14 L 13.5 15 L 14 15 L 14.5 15 L 15 15 L 15 14.5 L 15 14 L 15 13.5 L 14 13.5 z M 1.5 14 L 1.5 15 L 2 15 L 3 15 L 3.5 15 L 3.5 14 L 3 14 L 2 14 L 1.5 14 z M 4.5 14 L 4.5 15 L 5 15 L 6 15 L 6.5 15 L 6.5 14 L 6 14 L 5 14 L 4.5 14 z M 7.5 14 L 7.5 15 L 8 15 L 9 15 L 9.5 15 L 9.5 14 L 9 14 L 8 14 L 7.5 14 z M 10.5 14 L 10.5 15 L 11 15 L 12 15 L 12.5 15 L 12.5 14 L 12 14 L 11 14 L 10.5 14 z"
     id="path5" />
</svg>
